images/service/5.svg

<svg width="48" height="48" viewBox="0 0 48 48" fill="none" xmlns="http://www.w3.org/2000/svg">
<mask id="mask0_84_3575" style="mask-type:luminance" maskUnits="userSpaceOnUse" x="0" y="0" width="48" height="48">
<path d="M0 3.8147e-06H48V48H0V3.8147e-06Z" fill="white"/>
</mask>
<g mask="url(#mask0_84_3575)">
<path fill-rule="evenodd" clip-rule="evenodd" d="M7.34985 6.64455C7.34985 8.43325 8.80984 9.89355 10.5987 9.89355C10.987 9.89355 11.3018 9.57875 11.3018 9.19043C11.3018 8.8021 10.987 8.4873 10.5987 8.4873C9.58662 8.4873 8.7561 7.65673 8.7561 6.64455V3.24827C8.7561 2.23609 9.58662 1.40552 10.5987 1.40552C11.614 1.40552 12.444 2.23662 12.444 3.24827V4.94637C12.444 5.33469 12.7588 5.64949 13.1472 5.64949C13.5355 5.64949 13.8503 5.33469 13.8503 4.94637V3.24827C13.8503 1.45906 12.3897 -0.000725746 10.5987 -0.000725746C8.80984 -0.000725746 7.34985 1.45958 7.34985 3.24827V6.64455Z" fill="url(#paint0_linear_84_3575)"/>
<path fill-rule="evenodd" clip-rule="evenodd" d="M16.5045 6.64455C16.5045 8.43328 17.9646 9.89355 19.7534 9.89355C20.1417 9.89355 20.4565 9.57875 20.4565 9.19043C20.4565 8.8021 20.1417 8.4873 19.7534 8.4873C18.7413 8.4873 17.9108 7.6567 17.9108 6.64455V3.24827C17.9108 2.23613 18.7413 1.40552 19.7534 1.40552C20.7687 1.40552 21.5988 2.23662 21.5988 3.24827V4.94637C21.5988 5.33469 21.9136 5.64949 22.3019 5.64949C22.6902 5.64949 23.005 5.33469 23.005 4.94637V3.24827C23.005 1.45906 21.5444 -0.000725746 19.7534 -0.000725746C17.9646 -0.000725746 16.5045 1.45955 16.5045 3.24827V6.64455Z" fill="url(#paint1_linear_84_3575)"/>
<path fill-rule="evenodd" clip-rule="evenodd" d="M25.6593 6.64455C25.6593 8.43328 27.1194 9.89355 28.9082 9.89355C29.2965 9.89355 29.6113 9.57875 29.6113 9.19043C29.6113 8.8021 29.2965 8.4873 28.9082 8.4873C27.8961 8.4873 27.0656 7.6567 27.0656 6.64455V3.24827C27.0656 2.23613 27.8961 1.40552 28.9082 1.40552C29.9235 1.40552 30.7536 2.23662 30.7536 3.24827V4.94637C30.7536 5.33469 31.0684 5.64949 31.4567 5.64949C31.845 5.64949 32.1598 5.33469 32.1598 4.94637V3.24827C32.1598 1.45906 30.6992 -0.000725746 28.9082 -0.000725746C27.1194 -0.000725746 25.6593 1.45955 25.6593 3.24827V6.64455Z" fill="url(#paint2_linear_84_3575)"/>
<path fill-rule="evenodd" clip-rule="evenodd" d="M34.8141 6.64455C34.8141 8.43377 36.2747 9.89355 38.0657 9.89355C38.454 9.89355 38.7688 9.57875 38.7688 9.19043C38.7688 8.8021 38.454 8.4873 38.0657 8.4873C37.0504 8.4873 36.2203 7.65621 36.2203 6.64455V3.24827C36.2203 2.23662 37.0504 1.40552 38.0657 1.40552C39.0778 1.40552 39.9084 2.23613 39.9084 3.24827V4.94637C39.9084 5.33469 40.2232 5.64949 40.6115 5.64949C40.9998 5.64949 41.3146 5.33469 41.3146 4.94637V3.24827C41.3146 1.45955 39.8545 -0.000725746 38.0657 -0.000725746C36.2747 -0.000725746 34.8141 1.45906 34.8141 3.24827V6.64455Z" fill="url(#paint3_linear_84_3575)"/>
<path fill-rule="evenodd" clip-rule="evenodd" d="M31.9893 38.0951C32.2322 37.7922 32.1836 37.3497 31.8807 37.1067L15.0539 23.612C14.751 23.369 14.3085 23.4177 14.0655 23.7206C13.8226 24.0235 13.8712 24.4661 14.1741 24.709L31.0009 38.2038C31.3038 38.4467 31.7463 38.3981 31.9893 38.0951Z" fill="url(#paint4_linear_84_3575)"/>
<path fill-rule="evenodd" clip-rule="evenodd" d="M26.6083 25.7322C26.9113 25.9751 27.3539 25.9263 27.5967 25.6233L30.217 22.3547C30.4598 22.0517 30.4111 21.6091 30.1081 21.3663C29.8051 21.1234 29.3626 21.1721 29.1197 21.4751L26.4995 24.7438C26.2566 25.0468 26.3054 25.4893 26.6083 25.7322Z" fill="url(#paint5_linear_84_3575)"/>
<path fill-rule="evenodd" clip-rule="evenodd" d="M21.5549 26.7013C21.8474 26.9569 22.2916 26.9269 22.5471 26.6345C23.4762 25.5711 24.5944 24.2052 25.4497 22.5669C25.6294 22.2227 25.4961 21.7979 25.1518 21.6182C24.8076 21.4385 24.3829 21.5718 24.2031 21.9161C23.4269 23.403 22.398 24.6679 21.4881 25.7092C21.2326 26.0016 21.2625 26.4458 21.5549 26.7013Z" fill="url(#paint6_linear_84_3575)"/>
<path fill-rule="evenodd" clip-rule="evenodd" d="M26.7591 30.8741C27.072 31.1041 27.5121 31.0369 27.7421 30.7241C28.5602 29.6113 29.5727 28.3296 30.854 27.253C31.1513 27.0032 31.1898 26.5597 30.94 26.2624C30.6902 25.9651 30.2467 25.9266 29.9494 26.1764C28.5362 27.3638 27.4438 28.7557 26.6091 29.8911C26.3791 30.204 26.4462 30.6441 26.7591 30.8741Z" fill="url(#paint7_linear_84_3575)"/>
<path fill-rule="evenodd" clip-rule="evenodd" d="M30.0132 33.4853C30.3298 33.7102 30.7688 33.6358 30.9936 33.3192C32.0976 31.7645 33.696 29.8881 36.5897 29.7504C36.9776 29.7319 37.2771 29.4025 37.2586 29.0146C37.2402 28.6268 36.9108 28.3273 36.5229 28.3457C32.9377 28.5163 30.9964 30.8865 29.8471 32.5049C29.6222 32.8215 29.6966 33.2605 30.0132 33.4853Z" fill="url(#paint8_linear_84_3575)"/>
<path fill-rule="evenodd" clip-rule="evenodd" d="M19.3892 23.7549C19.7231 23.9531 20.1545 23.8431 20.3528 23.5092C20.7822 22.7859 21.3781 21.6129 21.1857 19.914C21.142 19.5282 20.7937 19.2508 20.4079 19.2945C20.022 19.3382 19.7446 19.6864 19.7883 20.0723C19.9306 21.3286 19.5061 22.1806 19.1436 22.7913C18.9453 23.1253 19.0553 23.5566 19.3892 23.7549Z" fill="url(#paint9_linear_84_3575)"/>
<path fill-rule="evenodd" clip-rule="evenodd" d="M10.4925 47.9736C10.769 47.9254 11.0682 47.8115 11.371 47.6721C11.3856 47.6654 11.3999 47.6582 11.414 47.6505L30.4836 37.2358C30.6899 37.1231 30.8263 36.9148 30.847 36.6806C30.8677 36.4464 30.77 36.2174 30.5866 36.0702L16.3482 24.6484C16.1648 24.5013 15.92 24.4556 15.6959 24.5266C15.4718 24.5976 15.2979 24.7759 15.2327 25.0018L9.20824 45.8603C9.20383 45.8756 9.19993 45.891 9.19656 45.9066C9.12296 46.2464 9.07662 46.5714 9.09153 46.8567C9.10592 47.1319 9.18605 47.5117 9.51464 47.771C9.84144 48.029 10.2271 48.0198 10.4925 47.9736ZM10.5661 46.2269L16.291 26.4054L28.8839 36.5072L10.7617 46.4045C10.6694 46.4465 10.5875 46.4809 10.5151 46.5085C10.5266 46.4273 10.5434 46.3338 10.5661 46.2269Z" fill="url(#paint10_linear_84_3575)"/>
<path fill-rule="evenodd" clip-rule="evenodd" d="M22.2367 41.7274C22.5397 41.4845 22.5885 41.042 22.3457 40.739L14.6233 31.103C14.3804 30.8 13.9379 30.7512 13.6349 30.994C13.3319 31.2369 13.2831 31.6794 13.5259 31.9824L21.2483 41.6184C21.4912 41.9214 21.9337 41.9702 22.2367 41.7274Z" fill="url(#paint11_linear_84_3575)"/>
<path fill-rule="evenodd" clip-rule="evenodd" d="M18.0646 44.0046C18.3676 43.7617 18.4162 43.3192 18.1733 43.0162L13.0339 36.6063C12.791 36.3034 12.3485 36.2547 12.0455 36.4976C11.7426 36.7405 11.6939 37.183 11.9368 37.486L17.0762 43.8959C17.3191 44.1988 17.7616 44.2475 18.0646 44.0046Z" fill="url(#paint12_linear_84_3575)"/>
<path fill-rule="evenodd" clip-rule="evenodd" d="M15.115 45.6149C15.418 45.372 15.4666 44.9294 15.2237 44.6265L11.9099 40.4942C11.6669 40.1912 11.2244 40.1426 10.9215 40.3855C10.6185 40.6285 10.5699 41.071 10.8128 41.3739L14.1266 45.5063C14.3695 45.8092 14.8121 45.8579 15.115 45.6149Z" fill="url(#paint13_linear_84_3575)"/>
<path fill-rule="evenodd" clip-rule="evenodd" d="M25.1863 40.1171C25.4894 39.8742 25.5382 39.4317 25.2954 39.1287L21.2668 34.1007C21.024 33.7976 20.5815 33.7488 20.2784 33.9916C19.9754 34.2344 19.9265 34.6769 20.1694 34.98L24.198 40.008C24.4408 40.311 24.8833 40.3599 25.1863 40.1171ZM19.0821 32.5008C19.3852 32.258 19.4341 31.8155 19.1913 31.5124L15.7474 27.2125C15.5047 26.9094 15.0622 26.8605 14.7591 27.1033C14.456 27.346 14.4071 27.7885 14.6498 28.0916L18.0937 32.3915C18.3365 32.6946 18.779 32.7435 19.0821 32.5008Z" fill="url(#paint14_linear_84_3575)"/>
<path fill-rule="evenodd" clip-rule="evenodd" d="M2.41223 41.07C2.41223 41.6921 2.91837 42.1982 3.54051 42.1982H11.2019C11.5902 42.1982 11.905 41.8834 11.905 41.4951C11.905 41.1068 11.5902 40.792 11.2019 40.792H3.81848V5.64981H44.1815V40.792H21.2177C20.8294 40.792 20.5146 41.1068 20.5146 41.4951C20.5146 41.8834 20.8294 42.1982 21.2177 42.1982H44.4595C45.0816 42.1982 45.5878 41.6921 45.5878 41.07V5.37193C45.5878 4.7498 45.0817 4.24356 44.4595 4.24356H3.54051C2.91827 4.24356 2.41223 4.74981 2.41223 5.37193V41.07Z" fill="url(#paint15_linear_84_3575)"/>
<path fill-rule="evenodd" clip-rule="evenodd" d="M2.41235 15.8398C2.41235 16.2282 2.72715 16.543 3.11548 16.543H22.2542C22.6425 16.543 22.9573 16.2282 22.9573 15.8398C22.9573 15.4515 22.6425 15.1367 22.2542 15.1367H3.11548C2.72715 15.1367 2.41235 15.4515 2.41235 15.8398ZM24.7957 15.8398C24.7957 16.2282 25.1105 16.543 25.4989 16.543H44.8848C45.2731 16.543 45.5879 16.2282 45.5879 15.8398C45.5879 15.4515 45.2731 15.1367 44.8848 15.1367H25.4989C25.1105 15.1367 24.7957 15.4515 24.7957 15.8398ZM2.41235 12.5393C2.41235 12.9276 2.72715 13.2424 3.11548 13.2424H44.8848C45.2731 13.2424 45.5879 12.9276 45.5879 12.5393C45.5879 12.151 45.2731 11.8362 44.8848 11.8362H3.11548C2.72715 11.8362 2.41235 12.151 2.41235 12.5393Z" fill="url(#paint16_linear_84_3575)"/>
</g>
<defs>
<linearGradient id="paint0_linear_84_3575" x1="7.34985" y1="4.94641" x2="13.8503" y2="4.94641" gradientUnits="userSpaceOnUse">
<stop stop-color="#0CBAF1"/>
<stop offset="1" stop-color="#E95CE9"/>
</linearGradient>
<linearGradient id="paint1_linear_84_3575" x1="16.5045" y1="4.94641" x2="23.005" y2="4.94641" gradientUnits="userSpaceOnUse">
<stop stop-color="#0CBAF1"/>
<stop offset="1" stop-color="#E95CE9"/>
</linearGradient>
<linearGradient id="paint2_linear_84_3575" x1="25.6593" y1="4.94641" x2="32.1598" y2="4.94641" gradientUnits="userSpaceOnUse">
<stop stop-color="#0CBAF1"/>
<stop offset="1" stop-color="#E95CE9"/>
</linearGradient>
<linearGradient id="paint3_linear_84_3575" x1="34.8141" y1="4.94641" x2="41.3146" y2="4.94641" gradientUnits="userSpaceOnUse">
<stop stop-color="#0CBAF1"/>
<stop offset="1" stop-color="#E95CE9"/>
</linearGradient>
<linearGradient id="paint4_linear_84_3575" x1="13.9109" y1="30.9079" x2="32.1439" y2="30.9079" gradientUnits="userSpaceOnUse">
<stop stop-color="#0CBAF1"/>
<stop offset="1" stop-color="#E95CE9"/>
</linearGradient>
<linearGradient id="paint5_linear_84_3575" x1="26.345" y1="23.5492" x2="30.3715" y2="23.5492" gradientUnits="userSpaceOnUse">
<stop stop-color="#0CBAF1"/>
<stop offset="1" stop-color="#E95CE9"/>
</linearGradient>
<linearGradient id="paint6_linear_84_3575" x1="21.3145" y1="24.2066" x2="25.5297" y2="24.2066" gradientUnits="userSpaceOnUse">
<stop stop-color="#0CBAF1"/>
<stop offset="1" stop-color="#E95CE9"/>
</linearGradient>
<linearGradient id="paint7_linear_84_3575" x1="26.4724" y1="28.5111" x2="31.1048" y2="28.5111" gradientUnits="userSpaceOnUse">
<stop stop-color="#0CBAF1"/>
<stop offset="1" stop-color="#E95CE9"/>
</linearGradient>
<linearGradient id="paint8_linear_84_3575" x1="29.7172" y1="30.9801" x2="37.2594" y2="30.9801" gradientUnits="userSpaceOnUse">
<stop stop-color="#0CBAF1"/>
<stop offset="1" stop-color="#E95CE9"/>
</linearGradient>
<linearGradient id="paint9_linear_84_3575" x1="19.0449" y1="21.5717" x2="21.2228" y2="21.5717" gradientUnits="userSpaceOnUse">
<stop stop-color="#0CBAF1"/>
<stop offset="1" stop-color="#E95CE9"/>
</linearGradient>
<linearGradient id="paint10_linear_84_3575" x1="9.08875" y1="36.2464" x2="30.8497" y2="36.2464" gradientUnits="userSpaceOnUse">
<stop stop-color="#0CBAF1"/>
<stop offset="1" stop-color="#E95CE9"/>
</linearGradient>
<linearGradient id="paint11_linear_84_3575" x1="13.3715" y1="36.3607" x2="22.5001" y2="36.3607" gradientUnits="userSpaceOnUse">
<stop stop-color="#0CBAF1"/>
<stop offset="1" stop-color="#E95CE9"/>
</linearGradient>
<linearGradient id="paint12_linear_84_3575" x1="11.7822" y1="40.2511" x2="18.3279" y2="40.2511" gradientUnits="userSpaceOnUse">
<stop stop-color="#0CBAF1"/>
<stop offset="1" stop-color="#E95CE9"/>
</linearGradient>
<linearGradient id="paint13_linear_84_3575" x1="10.6582" y1="43.0002" x2="15.3783" y2="43.0002" gradientUnits="userSpaceOnUse">
<stop stop-color="#0CBAF1"/>
<stop offset="1" stop-color="#E95CE9"/>
</linearGradient>
<linearGradient id="paint14_linear_84_3575" x1="14.4955" y1="33.6102" x2="25.4498" y2="33.6102" gradientUnits="userSpaceOnUse">
<stop stop-color="#0CBAF1"/>
<stop offset="1" stop-color="#E95CE9"/>
</linearGradient>
<linearGradient id="paint15_linear_84_3575" x1="2.41223" y1="23.2209" x2="45.5878" y2="23.2209" gradientUnits="userSpaceOnUse">
<stop stop-color="#0CBAF1"/>
<stop offset="1" stop-color="#E95CE9"/>
</linearGradient>
<linearGradient id="paint16_linear_84_3575" x1="2.41235" y1="14.1896" x2="45.5879" y2="14.1896" gradientUnits="userSpaceOnUse">
<stop stop-color="#0CBAF1"/>
<stop offset="1" stop-color="#E95CE9"/>
</linearGradient>
</defs>
</svg>

<svg xmlns="http://www.w3.org/2000/svg" width="48" height="48" fill="none" viewBox="0 0 48 48"><mask id="a" width="48" height="48" x="0" y="0" maskUnits="userSpaceOnUse" style="mask-type:luminance"><path fill="#fff" d="M0 0h48v48H0z"/></mask><g fill-rule="evenodd" clip-rule="evenodd" mask="url(#a)"><path fill="url(#b)" d="M7.35 6.645a3.256 3.256 0 0 0 3.249 3.249.703.703 0 0 0 0-1.407 1.85 1.85 0 0 1-1.843-1.842V3.248A1.85 1.85 0 0 1 10.6 1.406a1.85 1.85 0 0 1 1.845 1.842v1.698a.703.703 0 0 0 1.406 0V3.248C13.85 1.46 12.39 0 10.6 0a3.256 3.256 0 0 0-3.25 3.25z"/><path fill="url(#c)" d="M16.505 6.645a3.256 3.256 0 0 0 3.248 3.249.703.703 0 0 0 0-1.407 1.85 1.85 0 0 1-1.842-1.842V3.248a1.85 1.85 0 0 1 1.842-1.842A1.85 1.85 0 0 1 21.6 3.248v1.698a.703.703 0 1 0 1.406 0V3.248C23.005 1.46 21.545 0 19.753 0a3.256 3.256 0 0 0-3.248 3.25z"/><path fill="url(#d)" d="M25.66 6.645a3.256 3.256 0 0 0 3.248 3.249.703.703 0 0 0 0-1.407 1.85 1.85 0 0 1-1.842-1.842V3.248a1.85 1.85 0 0 1 1.842-1.842 1.85 1.85 0 0 1 1.846 1.842v1.698a.703.703 0 1 0 1.406 0V3.248C32.16 1.46 30.7 0 28.908 0a3.256 3.256 0 0 0-3.249 3.25z"/><path fill="url(#e)" d="M34.814 6.645c0 1.789 1.46 3.249 3.252 3.249a.703.703 0 0 0 0-1.407 1.85 1.85 0 0 1-1.846-1.842V3.248a1.85 1.85 0 0 1 1.846-1.842 1.85 1.85 0 0 1 1.842 1.842v1.698a.703.703 0 1 0 1.407 0V3.248A3.256 3.256 0 0 0 38.065 0a3.257 3.257 0 0 0-3.25 3.25z"/><path fill="url(#f)" d="M31.99 38.095a.703.703 0 0 0-.11-.988L15.055 23.612a.703.703 0 1 0-.88 1.097l16.827 13.495a.703.703 0 0 0 .988-.109"/><path fill="url(#g)" d="M26.608 25.732a.703.703 0 0 0 .989-.109l2.62-3.268a.703.703 0 0 0-1.097-.88l-2.62 3.269a.703.703 0 0 0 .108.988"/><path fill="url(#h)" d="M21.555 26.701a.703.703 0 0 0 .992-.067c.93-1.063 2.047-2.429 2.903-4.067a.703.703 0 1 0-1.247-.65c-.776 1.486-1.805 2.75-2.715 3.792a.703.703 0 0 0 .067.992"/><path fill="url(#i)" d="M26.76 30.874c.312.23.752.163.982-.15.818-1.113 1.83-2.394 3.112-3.471a.703.703 0 1 0-.905-1.077c-1.413 1.188-2.505 2.58-3.34 3.715a.703.703 0 0 0 .15.983"/><path fill="url(#j)" d="M30.013 33.485c.317.225.756.15.98-.166 1.105-1.555 2.703-3.43 5.597-3.569a.703.703 0 0 0-.067-1.404c-3.585.17-5.527 2.54-6.676 4.159a.703.703 0 0 0 .166.98"/><path fill="url(#k)" d="M19.39 23.755a.703.703 0 0 0 .963-.246c.43-.723 1.025-1.896.833-3.595a.703.703 0 0 0-1.398.158c.143 1.257-.282 2.109-.644 2.72a.703.703 0 0 0 .245.963"/><path fill="url(#l)" d="M10.493 47.974c.276-.049.575-.162.878-.302l.043-.021 19.07-10.415a.703.703 0 0 0 .103-1.166L16.348 24.648a.703.703 0 0 0-1.115.354L9.208 45.86l-.011.047c-.074.34-.12.664-.105.95.014.275.094.655.423.914.326.258.712.249.977.203m.073-1.747 5.725-19.822 12.593 10.102-18.122 9.898a4 4 0 0 1-.247.103q.017-.12.051-.281"/><path fill="url(#m)" d="M22.237 41.727a.703.703 0 0 0 .109-.988l-7.723-9.636a.703.703 0 0 0-1.097.88l7.722 9.635a.703.703 0 0 0 .989.11"/><path fill="url(#n)" d="M18.065 44.005a.703.703 0 0 0 .108-.989l-5.14-6.41a.703.703 0 0 0-1.096.88l5.14 6.41a.703.703 0 0 0 .988.109"/><path fill="url(#o)" d="M15.115 45.615a.703.703 0 0 0 .109-.989l-3.314-4.132a.703.703 0 1 0-1.097.88l3.314 4.132a.703.703 0 0 0 .988.109"/><path fill="url(#p)" d="M25.186 40.117a.703.703 0 0 0 .11-.988l-4.03-5.028a.703.703 0 1 0-1.097.879l4.029 5.028a.703.703 0 0 0 .988.11m-6.104-7.616a.703.703 0 0 0 .11-.989l-3.445-4.3a.703.703 0 1 0-1.097.88l3.444 4.3a.703.703 0 0 0 .988.109"/><path fill="url(#q)" d="M2.412 41.07a1.13 1.13 0 0 0 1.129 1.128h7.66a.703.703 0 0 0 0-1.406H3.819V5.65h40.364v35.142H21.218a.703.703 0 0 0 0 1.406H44.46a1.13 1.13 0 0 0 1.128-1.128V5.372a1.13 1.13 0 0 0-1.129-1.128H3.541a1.13 1.13 0 0 0-1.129 1.128z"/><path fill="url(#r)" d="M2.412 15.84c0 .388.315.703.703.703h19.14a.703.703 0 0 0 0-1.406H3.114a.703.703 0 0 0-.703.703m22.384 0c0 .388.314.703.703.703h19.386a.703.703 0 0 0 0-1.406H25.499a.703.703 0 0 0-.703.703m-22.384-3.3c0 .388.315.702.703.702h41.77a.703.703 0 0 0 0-1.406H3.115a.703.703 0 0 0-.703.703"/></g><defs><linearGradient id="b" x1="7.35" x2="13.85" y1="4.946" y2="4.946" gradientUnits="userSpaceOnUse"><stop stop-color="#0cbaf1"/><stop offset="1" stop-color="#e95ce9"/></linearGradient><linearGradient id="c" x1="16.505" x2="23.005" y1="4.946" y2="4.946" gradientUnits="userSpaceOnUse"><stop stop-color="#0cbaf1"/><stop offset="1" stop-color="#e95ce9"/></linearGradient><linearGradient id="d" x1="25.659" x2="32.16" y1="4.946" y2="4.946" gradientUnits="userSpaceOnUse"><stop stop-color="#0cbaf1"/><stop offset="1" stop-color="#e95ce9"/></linearGradient><linearGradient id="e" x1="34.814" x2="41.315" y1="4.946" y2="4.946" gradientUnits="userSpaceOnUse"><stop stop-color="#0cbaf1"/><stop offset="1" stop-color="#e95ce9"/></linearGradient><linearGradient id="f" x1="13.911" x2="32.144" y1="30.908" y2="30.908" gradientUnits="userSpaceOnUse"><stop stop-color="#0cbaf1"/><stop offset="1" stop-color="#e95ce9"/></linearGradient><linearGradient id="g" x1="26.345" x2="30.372" y1="23.549" y2="23.549" gradientUnits="userSpaceOnUse"><stop stop-color="#0cbaf1"/><stop offset="1" stop-color="#e95ce9"/></linearGradient><linearGradient id="h" x1="21.314" x2="25.53" y1="24.207" y2="24.207" gradientUnits="userSpaceOnUse"><stop stop-color="#0cbaf1"/><stop offset="1" stop-color="#e95ce9"/></linearGradient><linearGradient id="i" x1="26.472" x2="31.105" y1="28.511" y2="28.511" gradientUnits="userSpaceOnUse"><stop stop-color="#0cbaf1"/><stop offset="1" stop-color="#e95ce9"/></linearGradient><linearGradient id="j" x1="29.717" x2="37.259" y1="30.98" y2="30.98" gradientUnits="userSpaceOnUse"><stop stop-color="#0cbaf1"/><stop offset="1" stop-color="#e95ce9"/></linearGradient><linearGradient id="k" x1="19.045" x2="21.223" y1="21.572" y2="21.572" gradientUnits="userSpaceOnUse"><stop stop-color="#0cbaf1"/><stop offset="1" stop-color="#e95ce9"/></linearGradient><linearGradient id="l" x1="9.089" x2="30.85" y1="36.246" y2="36.246" gradientUnits="userSpaceOnUse"><stop stop-color="#0cbaf1"/><stop offset="1" stop-color="#e95ce9"/></linearGradient><linearGradient id="m" x1="13.371" x2="22.5" y1="36.361" y2="36.361" gradientUnits="userSpaceOnUse"><stop stop-color="#0cbaf1"/><stop offset="1" stop-color="#e95ce9"/></linearGradient><linearGradient id="n" x1="11.782" x2="18.328" y1="40.251" y2="40.251" gradientUnits="userSpaceOnUse"><stop stop-color="#0cbaf1"/><stop offset="1" stop-color="#e95ce9"/></linearGradient><linearGradient id="o" x1="10.658" x2="15.378" y1="43" y2="43" gradientUnits="userSpaceOnUse"><stop stop-color="#0cbaf1"/><stop offset="1" stop-color="#e95ce9"/></linearGradient><linearGradient id="p" x1="14.495" x2="25.45" y1="33.61" y2="33.61" gradientUnits="userSpaceOnUse"><stop stop-color="#0cbaf1"/><stop offset="1" stop-color="#e95ce9"/></linearGradient><linearGradient id="q" x1="2.412" x2="45.588" y1="23.221" y2="23.221" gradientUnits="userSpaceOnUse"><stop stop-color="#0cbaf1"/><stop offset="1" stop-color="#e95ce9"/></linearGradient><linearGradient id="r" x1="2.412" x2="45.588" y1="14.19" y2="14.19" gradientUnits="userSpaceOnUse"><stop stop-color="#0cbaf1"/><stop offset="1" stop-color="#e95ce9"/></linearGradient></defs></svg>
